assets/images/payment-method-icons/cb.svg

<svg fill="none" height="40" viewBox="0 0 39 25" width="64" xmlns="http://www.w3.org/2000/svg" xmlns:xlink="http://www.w3.org/1999/xlink"><linearGradient id="a" gradientUnits="userSpaceOnUse" x1="11.0155" x2="3.21751" y1="-2.81556" y2="23.5991"><stop offset="0" stop-color="#222e72"/><stop offset=".591647" stop-color="#40cbff"/><stop offset="1" stop-color="#3cb792"/></linearGradient><rect fill="url(#a)" height="23" rx="1.5" width="37.4" x="1.09985" y=".723633"/><rect height="23" rx="1.5" stroke="#ddd" width="37.4" x="1.09985" y=".723633"/><path clip-rule="evenodd" d="m13.307 11.7158h6.7313c-.06-1.455-.399-2.95511-1.4272-3.91866-1.2248-1.14777-3.3701-1.57351-5.287-1.57351-1.9952 0-4.2017.46697-5.43296 1.69846-1.06175 1.06082-1.29129 2.76761-1.29129 4.30121 0 1.6064.44907 3.4749 1.60087 4.5511 1.22478 1.1452 3.20938 1.4492 5.12338 1.4492 1.8592 0 3.8733-.3433 5.091-1.4305 1.2142-1.0859 1.6338-2.9151 1.6338-4.5698v-.0077h-6.7419zm7.1827.5v5.7395h9.3639v-.0077c1.3702-.0747 2.4602-1.3101 2.4602-2.8269 0-1.5175-1.09-2.8321-2.4602-2.9074v.0025zm9.2574-5.75192c1.3354 0 2.3954 1.15871 2.3954 2.62079 0 1.38413-.9735 2.51453-2.2118 2.63113h-9.441v-5.26029h8.9619c.0552-.00675.1194-.002.1823.00263.0391.00289.0777.00574.1132.00574z" fill="#fefefe" fill-rule="evenodd"/></svg>

<svg
		width="64"
		height="40"
		viewBox="0 0 39 25"
		fill="none"
		xmlns="http://www.w3.org/2000/svg"
>
	<rect
			x="1.09985"
			y="0.723633"
			width="37.4"
			height="23"
			rx="1.5"
			fill="url(#paint0_linear_685_110690)"
	/>
	<rect
			x="1.09985"
			y="0.723633"
			width="37.4"
			height="23"
			rx="1.5"
			stroke="#DDDDDD"
	/>
	<path
			fill-rule="evenodd"
			clip-rule="evenodd"
			d="M13.307 11.7158H20.0383C19.9783 10.2608 19.6393 8.76069 18.6111 7.79714C17.3863 6.64937 15.241 6.22363 13.3241 6.22363C11.3289 6.22363 9.1224 6.6906 7.89114 7.92209C6.82939 8.98291 6.59985 10.6897 6.59985 12.2233C6.59985 13.8297 7.04892 15.6982 8.20072 16.7744C9.4255 17.9196 11.4101 18.2236 13.3241 18.2236C15.1833 18.2236 17.1974 17.8803 18.4151 16.7931C19.6293 15.7072 20.0489 13.878 20.0489 12.2233V12.2156H13.307V11.7158ZM20.4897 12.2158V17.9553H29.8536V17.9476C31.2238 17.8729 32.3138 16.6375 32.3138 15.1207C32.3138 13.6032 31.2238 12.2886 29.8536 12.2133V12.2158H20.4897ZM29.7471 6.46388C31.0825 6.46388 32.1425 7.62259 32.1425 9.08467C32.1425 10.4688 31.169 11.5992 29.9307 11.7158H20.4897V6.45551H29.4516C29.5068 6.44876 29.571 6.45351 29.6339 6.45814C29.673 6.46103 29.7116 6.46388 29.7471 6.46388Z"
			fill="#FEFEFE"
	/>
	<defs>
		<linearGradient
				id="paint0_linear_685_110690"
				x1="11.0155"
				y1="-2.81556"
				x2="3.21751"
				y2="23.5991"
				gradientUnits="userSpaceOnUse"
		>
			<stop stop-color="#222E72" />
			<stop offset="0.591647" stop-color="#40CBFF" />
			<stop offset="1" stop-color="#3CB792" />
		</linearGradient>
	</defs>
</svg>
